icon-themes/colibre_svg/cmd/sc_showrow.svg

<svg viewBox="0 0 16 16" xmlns="http://www.w3.org/2000/svg">/&amp;amp;gt;<path d="m1 2v12h14v-12z" fill="#fff"/><path d="m0 1v4 9.5c-.00038442.276301.22369855.500384.5.5h15c.276301.000384.500384-.223699.5-.5v-9.5-4zm1 1h4v3 1h1v-1-3h4v3 1h1v-1-3h4v3h.001953v9.001953h-14.00390612v-9.001953h.00195312zm4 9v3h1v-3zm5 0v3h1v-3z" fill="#808080"/><path d="m0 5v6h16v-6zm1 1h4v4h-4zm5 0h4v4h-4zm5 0h4v4h-4z" fill="#eac282"/></svg>

<?xml version="1.0" encoding="UTF-8" standalone="no"?>
<svg xmlns="http://www.w3.org/2000/svg" xmlns:sodipodi="http://sodipodi.sourceforge.net/DTD/sodipodi-0.dtd" xmlns:inkscape="http://www.inkscape.org/namespaces/inkscape" viewBox="0 0 16 16" version="1.1">
 <metadata id="metadata12">
  <rdf:RDF>
   <cc:Work>
    <dc:format>image/svg+xml</dc:format>
    <dc:type rdf:resource="http://purl.org/dc/dcmitype/StillImage"/>
   </cc:Work>
  </rdf:RDF>
 </metadata>
 <defs id="defs10"/>
 <sodipodi:namedview pagecolor="#ffffff" bordercolor="#666666" borderopacity="1" objecttolerance="10" gridtolerance="10" guidetolerance="10" inkscape:pageopacity="0" inkscape:pageshadow="2" inkscape:window-width="2560" inkscape:window-height="1319" id="namedview8" showgrid="true" inkscape:zoom="41.7193" inkscape:cx="-0.1524274" inkscape:cy="7.50479" inkscape:window-x="0" inkscape:window-y="30" inkscape:window-maximized="1" inkscape:current-layer="svg6">
  <inkscape:grid type="xygrid" id="grid822"/>
 </sodipodi:namedview>






     /&amp;gt;
  <path d="M 1 2 L 1 14 L 15 14 L 15 2 L 1 2 z " id="rect840" opacity="1" stroke-dasharray="none" stroke-opacity="1" fill="#ffffff" stroke="none" stroke-linejoin="round" fill-opacity="1" stroke-linecap="round" stroke-width="2" stroke-miterlimit="4"/> <path d="M 0 1 L 0 5 L 0 14.5 C -0.00038442 14.776301 0.22369855 15.000384 0.5 15 L 15.5 15 C 15.776301 15.000384 16.000384 14.776301 16 14.5 L 16 5 L 16 1 L 0 1 z M 1 2 L 5 2 L 5 5 L 5 6 L 6 6 L 6 5 L 6 2 L 10 2 L 10 5 L 10 6 L 11 6 L 11 5 L 11 2 L 15 2 L 15 5 L 15.001953 5 L 15.001953 14.001953 L 0.99804688 14.001953 L 0.99804688 5 L 1 5 L 1 2 z M 5 11 L 5 14 L 6 14 L 6 11 L 5 11 z M 10 11 L 10 14 L 11 14 L 11 11 L 10 11 z " id="path4" fill="#808080" fill-opacity="1"/> <path d="m 0,5 v 6 H 16 V 5 Z m 1,1 h 4 v 4 H 1 Z m 5,0 h 4 v 4 H 6 Z m 5,0 h 4 v 4 h -4 z" id="rect824" inkscape:connector-curvature="0" opacity="1" stroke-dasharray="none" stroke-opacity="1" fill="#eac282" stroke="none" stroke-linejoin="round" fill-opacity="1" stroke-linecap="round" stroke-width="2" stroke-miterlimit="4"/></svg>
